!!!COA:	Josquin des Prez
!!!CDT:	~1450-1521/08/27
!!!OTL:	Domine quis habitabit
!!!AGN:	Motet
!!!SCT:	NJE 16.11
!!!SCA:	New Josquin Edition 16.11
!!!voices:	4
**kern	**kern	**kern	**kern
*staff4	*staff3	*staff2	*staff1
*Ivox	*Ivox	*Ivox	*Ivox
*I"Bassus	*I"Tenor	*I"Altus	*I"Discantus
*I'B	*I'T	*I'A	*I'D
*>[A,B]	*>[A,B]	*>[A,B]	*>[A,B]
*>A	*>A	*>A	*>A
*clefF4	*clefGv2	*clefGv2	*clefG2
*k[]	*k[]	*k[]	*k[]
*M3/1	*M3/1	*M3/1	*M3/1
*met(O)	*met(O)	*met(O)	*met(O)
!!section: Prima pars: Domine quis habitabit
!!!OMD: Prima pars: Domine quis habitabit
=1-	=1-	=1-	=1-
0.r	0.r	1r	1.g
.	.	1r	.
.	.	.	2g/
.	.	[1c	1g
=2	=2	=2	=2
0.r	0.r	2c\]	1cc
.	.	2c\	.
.	.	1c	2r
.	.	.	2cc\
.	.	1f	2cc\
.	.	.	2cc\
=3	=3	=3	=3
0.r	0.r	2r	1cc
.	.	2f\	.
.	.	2f\	1a
.	.	2f\	.
.	.	1f	2r
.	.	.	2cc\
=4	=4	=4	=4
0.r	0.r	1d	2dd\
.	.	.	2a/
.	.	2r	1cc
.	.	2f\	.
.	.	2g\	2b\
.	.	2d\	[2a/
=5	=5	=5	=5
0.r	1r	1f	4a/]
.	.	.	4b\
.	.	.	4cc\
.	.	.	4dd\
.	1r	2e\	2ee\
.	.	2f\	1cc
.	[1G	1d	.
.	.	.	2b\
=6	=6	=6	=6
1.C	2G/]	0c	1cc
.	2G/	.	.
.	1G	.	1r
2C/	.	.	.
1C	1c	1r	1r
=7	=7	=7	=7
1F	2r	0.r	0.r
.	2c\	.	.
2r	2c\	.	.
2F\	2c\	.	.
2F\	2.c\	.	.
2F\	.	.	.
.	4A/	.	.
=8	=8	=8	=8
1F	2A/	0.r	0.r
.	2c\	.	.
1D	2d\	.	.
.	2A/	.	.
2r	1c	.	.
2F\	.	.	.
=9	=9	=9	=9
2G\	2B\	0.r	0.r
2D\	2.A/	.	.
1F	.	.	.
.	4B\	.	.
.	4c\	.	.
.	4d\	.	.
2E\	2e\	.	.
2F\	[2c\	.	.
=10	=10	=10	=10
1D	2c\]	1f	1r
.	2B\	.	.
1C	1c	1.e	1cc
1r	1r	.	[1b
.	.	2d\	.
=11	=11	=11	=11
0.r	0.r	2e\	2b\]
.	.	2f\	2a/
.	.	2g\	2b\
.	.	2e\	2cc\
.	.	2d\	2dd\
.	.	2g\	2b\
=12	=12	=12	=12
1r	1r	2f\	2a/
.	.	1e	1cc
1F	1r	.	.
.	.	2d\	4b\
.	.	.	4a/
[1E	1c	1e	2.g/
.	.	.	4a/
=13	=13	=13	=13
2E\]	1.B	0.r	4b\
.	.	.	4cc\
2D\	.	.	2dd\
2E\	.	.	2g/
2F\	2A/	.	2a/
2G\	2B\	.	1g
2E\	2c\	.	.
=14	=14	=14	=14
2D\	2d\	0.r	0.r
2G\	2B\	.	.
2F\	2A/	.	.
1E	1c	.	.
2D\	4B\	.	.
.	4A/	.	.
=15	=15	=15	=15
2E\	2G/	1r	1r
2C/	1A	.	.
1BB	.	1r	1dd
.	2G/	.	.
1AA	1A	1e	1cc
=16	=16	=16	=16
0.r	1B	1d	2r
.	.	.	2b\
.	1A	2r	1cc
.	.	2c\	.
.	1r	1d	2b\
.	.	.	[2a/
=17	=17	=17	=17
1r	1r	2c\	2a/]
.	.	2B\	2g/
1D	1r	2.A/	2a/
.	.	.	2f/
.	.	4B\	.
1C	2r	2c\	1e
.	2c\	2G/	.
=18	=18	=18	=18
2r	1B	2.d\	0.r
2G\	.	.	.
.	.	4e\	.
2F\	2r	1f	.
2D\	2.A/	.	.
2C/	.	2e\	.
.	4G/	.	.
[2G\	[2B\	[2d\	.
=19	=19	=19	=19
4G\]	4B\]	2d\]	1r
4F\	4A/	.	.
2E\	1G	2c\	.
1D	.	1d	2r
.	2F#i/	.	2a/
1GG	1G	2r	1b
.	.	2d\	.
=20	=20	=20	=20
0.r	1r	1e	1cc
.	1r	1f	1a
.	[1G	1d	1b
=21	=21	=21	=21
1C	2G/]	1e	0.r
.	1A	.	.
1D	.	1r	.
.	1B	.	.
1E	.	1r	.
.	2G/	.	.
=22	=22	=22	=22
2.C/	2A/	2.e\	1r
.	2.G/	.	.
4BB/	.	4d\	.
2AA/	.	2c\	2r
.	4F/	.	.
2GG/	2G/	2B\	2dd\
2AA/	2E/	1A	1cc
2FF/	2F/	.	.
=23	=23	=23	=23
1GG	2D/	1d	1b
.	1G	.	.
1AA	.	1c	1a
.	2F/	.	.
1GG	2G/	2.B\	2d/
.	2E/	.	2g/
.	.	4c\	.
=24	=24	=24	=24
1r	2D/	2d\	2f/
.	2A/	2c\	2e/
2r	2G/	2d\	2g/
2AA/	2.c\	2.e\	2.a/
1E	.	.	.
.	4B\	4d\	4g/
.	2G/	4B\	[2g/
.	.	4c\	.
=25	=25	=25	=25
1D	1A	1d	2g/]
.	.	.	2f#i/
2r	1G	0B	0g
1GG	.	.	.
.	2r	.	.
2GG/	[2D/	.	.
=26	=26	=26	=26
2.BB/	2D/]	1r	0.r
.	2D/	.	.
4C/	.	.	.
1D	2.F/	1r	.
.	4G/	.	.
1r	1A	2r	.
.	.	[2c\	.
=27	=27	=27	=27
0.r	0.r	2c\]	2r
.	.	2c\	1g
.	.	2.e\	.
.	.	.	2g/
.	.	4f\	.
.	.	1g	2.b\
.	.	.	4cc\
=28	=28	=28	=28
0.r	0.r	2r	1dd
.	.	1g	.
.	.	.	2r
.	.	2f\	1dd
.	.	2g\	.
.	.	2e\	2cc\
=29	=29	=29	=29
2r	1r	0d	2dd\
1G	.	.	2b\
.	2r	.	1a
2F\	1d	.	.
2G\	.	2r	1r
2E\	2c\	2g\	.
=30	=30	=30	=30
1D	2d\	2f\	2r
.	2B\	2d\	2dd\
1r	1A	1e	2cc\
.	.	.	2a/
2r	1r	1d	1b
2G\	.	.	.
=31	=31	=31	=31
2F\	2r	0.r	1a
2D\	2d\	.	.
2E\	2c\	.	1r
2F\	2A/	.	.
2G\	2B\	.	1r
2E\	[2c\	.	.
=32	=32	=32	=32
1D	2c\]	1f	1r
.	2B\	.	.
1C	1c	1e	1g
1r	1r	1d	1f
=33	=33	=33	=33
1r	1A	1c	1e
2r	1B	1r	2.d/
2G\	.	.	.
.	.	.	4e/
1F	2A/	1r	4f/
.	.	.	4g/
.	[2d\	.	4a/
.	.	.	4f/
=34	=34	=34	=34
1E	2d\]	2r	1g
.	2c\	1g	.
1D	0d	.	2r
.	.	2f\	2a/
1G	.	1g	1b
=35	=35	=35	=35
2C/	1c	2e\	2g/
2.F\	.	2.f\	2.a/
.	2r	.	.
4G\	.	8e\L	4b\
.	.	8d\J	.
2A\	2e\	2c\	4cc\
.	.	.	4a/
2G\	2e\	2g\	2b\
2c\	2e\	2c\	[2a/
=36	=36	=36	=36
1B	2d\	1r	2a/]
.	1d	.	2g/
1A	.	2r	1a
.	2c\	2e\	.
1D	2d\	1f	2r
.	2d\	.	2a/
=37	=37	=37	=37
1r	1G	1g	1b
1A	1r	1e	1cc
2D\	1d	2f\	1a
2D\	.	2f\	.
=38	=38	=38	=38
1G	2d\	0g	1.b
.	2d\	.	.
2G\	1d	.	.
2G\	.	.	2b\
1A	1c	1e	1cc
=39	=39	=39	=39
1D	1d	1f	1a
1G	1d	1g	1b
1A	1c	1e	1cc
=40	=40	=40	=40
1D	1d	1f	1a
2G\	2d\	1g	2b\
2E\	2c\	.	1cc
2F\	1d	2a\	.
2G\	.	2g\	2b\
=41	=41	=41	=41
2C/	1c	2e\	0cc
2F\	.	2.A/	.
2F\	2r	.	.
.	.	4B\	.
2F\	2A/	4c\	.
.	.	4d\	.
1E	2B\	2e\	1r
.	[2G/	[2c\	.
=42	=42	=42	=42
1D	2G/]	2c\]	2r
.	2F/	2B\	2ff\
1C	1.G	2.c\	2.ee\
.	.	4d\	8dd\L
.	.	.	8cc\J
1r	.	1e	2b\
.	2A/	.	2cc\
=43	=43	=43	=43
0.r	2B\	1d	2dd\
.	2G/	.	2.b\
.	2B\	2r	.
.	.	.	4a/
.	2c\	1e	1g
.	1A	.	.
.	.	4d\	2f#i/
.	.	4c\	.
=44	=44	=44	=44
2r	1G	2d\	1g
2GG/	.	2B\	.
1.C	2r	2.e\	1r
.	2G/	.	.
.	.	4d\	.
.	2G/	4c\	1r
.	.	4B\	.
2D\	2F/	2A/	.
=45	=45	=45	=45
2.E\	2.G/	2G/	1r
.	.	2.B\	.
4F\	4A/	.	.
1G	2.B\	.	2r
.	.	4c\	.
.	.	2d\	2g/
.	8A/L	.	.
.	8B/J	.	.
1C	1c	[1e	2g/
.	.	.	2g/
=46	=46	=46	=46
2r	1A	2e\]	2a/
2D\	.	4d\	2f/
.	.	4c\	.
2E\	0G	2B\	1e
2C/	.	1c	.
1G	.	.	2r
.	.	2B\	2d/
=47	=47	=47	=47
1C	2r	1c	1e
.	2G/	.	.
1r	2A/	1r	2f/
.	2B\	.	2g/
1r	2c\	1r	2.e/
.	2A/	.	.
.	.	.	4f/
=48	=48	=48	=48
1r	2B\	1r	2g/
.	2c\	.	2e/
1r	2d\	2r	2f/
.	2e\	2c\	2g/
2r	[1A	2c\	[1a
2F\	.	2c\	.
=49	=49	=49	=49
2F\	0.A]	2.c\	1a]
2F\	.	.	.
.	.	4c\	.
2.F\	.	2A/	1r
.	.	2c\	.
4F\	.	.	.
2D\	.	2d\	1r
2F\	.	2c\	.
=50	=50	=50	=50
2G\	1r	2.B\	0.r
2.E\	.	.	.
.	.	4c\	.
.	1r	2B\	.
4D\	.	.	.
4C/	.	1A	.
4D\	.	.	.
1BB	2r	.	.
.	[2d\	2G#i/	.
=51	=51	=51	=51
1AA	2d\]	1A	2r
.	2c\	.	2e/
1D	1.d	2r	1f
.	.	2A/	.
1GG	.	1B	1g
.	2d\	.	.
=52	=52	=52	=52
1r	1c	1A	2.e/
.	.	.	4f/
1r	1B	1G	2g/
.	.	.	2d/
[1D	2.A/	1d	2.f/
.	4G/	.	4g/
=53	=53	=53	=53
2D\]	2F/	2r	4a/
.	.	.	4b\
2C/	1E	1A	2cc\
1BB	.	.	1dd
.	2D/	2G/	.
1AA	1E	2A/	2cc\
.	.	2c\	[2a/
=54	=54	=54	=54
1r	2r	1B	2a/]
.	2E/	.	2g#i/
2r	2F/	1A	1a
2AA/	2E/	.	.
2BB/	2D/	1r	1r
2AA/	2F/	.	.
=55	=55	=55	=55
2GG/	2G/	0.r	1r
2BB/	2D/	.	.
2C/	2E/	.	1r
2GG/	1G	.	.
1AA	.	.	2r
.	2F#i/	.	2a/
=56	=56	=56	=56
1GG	1G	2r	2.b\
.	.	2d\	.
.	.	.	4a/
1r	1r	2e\	2g/
.	.	2d\	2b\
1r	1r	2c\	2cc\
.	.	2e\	2g/
=57	=57	=57	=57
1r	1r	2f\	2a/
.	.	2c\	1cc
1r	2r	1d	.
.	2G/	.	2b\
2r	2A/	1c	1cc
2C/	2G/	.	.
=58	=58	=58	=58
2D\	2F/	1r	1r
2C/	2E/	.	.
2BB/	4D/	2r	1r
.	2G/	.	.
2AA/	.	4d\	.
.	4F/	2c\	.
2GG/	1G	.	2r
.	.	4B\	.
2C/	.	2c\	2e/
=59	=59	=59	=59
2D\	2r	2A/	2f/
2E\	2B\	2G/	2g/
1AA	1.c	2A/	2e/
.	.	1e	2a/
1r	.	.	1g
.	2B\	2d\	.
=60	=60	=60	=60
1F	1A	1.c	0.r
2.E\	2.G/	.	.
.	.	2B\	.
4D\	4F/	.	.
4C/	4E/	2A/	.
4BB/	4D/	.	.
4AA/	[2G/	[2d\	.
4GG/	.	.	.
=61	=61	=61	=61
1AA	2G/]	4d\]	1r
.	.	4c\	.
.	2F/	1c	.
1FF	0G	.	2r
.	.	2B\	2d/
1C	.	1c	[1e
=62	=62	=62	=62
1r	1A	2r	2e/]
.	.	2c\	2f/
1r	1G	2d\	2g/
.	.	2B\	2d/
1F	1r	2A/	1a
.	.	[2c\	.
=63	=63	=63	=63
2.E\	2.G/	2c\]	0.r
.	.	2B\	.
4D\	4F/	.	.
4C/	4E/	2A/	.
4BB/	4D/	.	.
4AA/	1G	2.d\	.
4GG/	.	.	.
1AA	.	.	.
.	.	4c\	.
.	2F/	[2c\	.
=64	=64	=64	=64
1GG	0G	2c\]	2r
.	.	2B\	2d/
1C	.	1c	1.e
1r	1A	2r	.
.	.	2c\	2f/
=65	=65	=65	=65
2r	2B\	2d\	2g/
2GG/	1.G	2B\	2d/
2C/	.	2c\	2e/
2BB/	.	2d\	1g
2C/	1A	2e\	.
2D\	.	2d\	2f#i/
=66	=66	=66	=66
0.GGl	0.Gl	0.dl	0.gl
!!LO:LB:i:g=z
=67||	=67||	=67||	=67||
*>B	*>B	*>B	*>B
*clefF4	*clefGv2	*clefGv2	*clefG2
*k[]	*k[]	*k[]	*k[]
*M2/1	*M2/1	*M2/1	*M2/1
*met(C|)	*met(C|)	*met(C|)	*met(C|)
!!section: Secunda pars: Ad nihilum deductus est
!!!OMD: Secunda pars: Ad nihilum deductus est
0r	0G	0d	0g
=68	=68	=68	=68
0G	1.B	1.d	1.g
.	2B\	2d\	2g/
=69	=69	=69	=69
1.G	1B	1d	0g
.	1B	1d	.
2G\	.	.	.
=70	=70	=70	=70
2.C/	2.c\	2.e\	1g
4D\	8B/L	8d\L	.
.	8A/J	8c\J	.
2E\	2G/	2B\	[1g
2C/	[2c\	2e\	.
=71	=71	=71	=71
1G	2c\]	1d	1g]
.	4B\	.	.
.	4A/	.	.
1G	1B	2r	1g
.	.	2d\	.
=72	=72	=72	=72
1C	1c	2.e\	0g
.	.	4d\	.
1r	2r	4c\	.
.	.	4B\	.
.	[2c\	[2e\	.
=73	=73	=73	=73
0r	2c\]	2e\]	2r
.	4B\	4d\	2g/
.	4A/	4c\	.
.	2B\	2d\	2g/
.	2c\	2e\	2g/
=74	=74	=74	=74
0r	1A	1c	2a/
.	.	.	1cc
.	1G	1d	.
.	.	.	2b\
=75	=75	=75	=75
2r	2.A/	1c	1cc
1F	.	.	.
.	4B\	.	.
.	2.c\	1r	1r
4E\	.	.	.
4D\	4d\	.	.
=76	=76	=76	=76
2E\	2G/	1r	0r
2F\	1c	.	.
1D	.	1f	.
.	2B\	.	.
=77	=77	=77	=77
1C	1c	1e	1g
1F	1r	2.c\	1a
.	.	4d\	.
=78	=78	=78	=78
1E	1B	1e	1g
1AA	2A/	2c\	2e/
.	[2c\	[2e\	[2a/
=79	=79	=79	=79
1E	4c\]	4e\]	2a/]
.	4B\	4d\	.
.	2G/	4B\	1g
.	.	4c\	.
1D	1A	1d	.
.	.	.	2f#i/
=80	=80	=80	=80
2r	1G	0B	0g
2GG/	.	.	.
2GG/	2r	.	.
2GG/	2G/	.	.
=81	=81	=81	=81
1C	2G/	0r	0r
.	2G/	.	.
1AA	1c	.	.
=82	=82	=82	=82
2D\	1A	0r	1r
2D\	.	.	.
1BB	2d\	.	2r
.	2d\	.	2d/
=83	=83	=83	=83
0r	0B	2r	2d/
.	.	2G/	2d/
.	.	2G/	2.g/
.	.	2G/	.
.	.	.	4g/
=84	=84	=84	=84
0r	0r	1c	2e/
.	.	.	2e/
.	.	1A	2a/
.	.	.	2a/
=85	=85	=85	=85
0r	1r	2d\	2f/
.	.	2d\	2f/
.	1G	1B	1d
=86	=86	=86	=86
1C	2G/	0r	0r
.	2G/	.	.
2C/	1c	.	.
2C/	.	.	.
=87	=87	=87	=87
1F	1A	0r	1r
1D	2d\	.	2r
.	2d\	.	2d/
=88	=88	=88	=88
2G\	0B	2r	2d/
2G\	.	2G/	2d/
1E	.	2G/	1g
.	.	2G/	.
=89	=89	=89	=89
1A	0r	1c	1e
2F\	.	1A	2a/
2F\	.	.	2a/
=90	=90	=90	=90
1D	1r	2d\	1f
.	.	2d\	.
1r	1G	2.B\	2r
.	.	.	2d/
.	.	4c\	.
=91	=91	=91	=91
0r	2F/	2d\	2f/
.	2E/	2e\	2g/
.	2.D/	2.f\	[1a
.	4E/	8e\L	.
.	.	8d\J	.
=92	=92	=92	=92
2r	2F/	2c\	2a/]
2.C/	1G	2.e\	2r
.	.	.	1r
4BB/	.	4d\	.
2AA/	2F/	[2c\	.
=93	=93	=93	=93
1GG	1G	2c\]	2r
.	.	2B\	2d/
1C	2r	1c	[1e
.	2G/	.	.
=94	=94	=94	=94
0r	1A	2r	2e/]
.	.	2c\	2f/
.	1G	1d	1g
=95	=95	=95	=95
1.C	2r	1c	1e
.	1A	.	.
.	.	2r	1r
2BB/	2G/	2d\	.
=96	=96	=96	=96
1AA	0A	2d\	2r
.	.	2c\	2e/
2.D\	.	[1d	1f
4C/	.	.	.
=97	=97	=97	=97
2BB/	2G/	2d\]	2g/
2AA/	2E/	2c\	2a/
1GG	1G	1B	2d/
.	.	.	2dd\
=98	=98	=98	=98
1AA	1E	2r	1cc
.	.	2A/	.
2GG/	2r	2d\	2b\
[2C/	[2G/	4c\	[2ee\
.	.	4d\	.
=99	=99	=99	=99
4C/]	2G/]	4e\	4ee\]
4D\	.	4f\	4dd\
2E\	2G/	2g\	4cc\
.	.	.	4b\
2AA/	1A	2e\	2cc\
2D\	.	2d\	2f/
=100	=100	=100	=100
1GG	1G	1B	2g/
.	.	.	2d/
1r	1c	2r	[1e
.	.	[2A/	.
=101	=101	=101	=101
1r	2r	2A/]	2e/]
.	2c\	2A/	2f/
2r	2B\	4G/	2g/
.	.	4E/	.
2AA/	[2c\	[2e\	[2a/
=102	=102	=102	=102
1E	4c\]	4e\]	4a/]
.	4B\	4d\	4g/
.	2G/	4B\	1g
.	.	4c\	.
1D	1A	1d	.
.	.	.	2f#i/
=103	=103	=103	=103
2r	[0G	0B	1g
1GG	.	.	.
.	.	.	2r
2GG/	.	.	[2d/
=104	=104	=104	=104
2GG/	1G]	2r	2d/]
2GG/	.	2B\	2d/
2C/	2r	1c	1e
[2AA/	[2A/	.	.
=105	=105	=105	=105
4AA/]	2A/]	2c\	2e/
4BB/	.	.	.
4C/	2A/	2c\	2e/
4AA/	.	.	.
1D	2A/	1d	1f
.	2A/	.	.
=106	=106	=106	=106
1GG	1G	1B	1d
1C	1G	1c	[1e
=107	=107	=107	=107
1AA	1A	1c	1e]
1D	1A	1d	1f
=108	=108	=108	=108
1GG	2G/	1B	1d
.	2G/	.	.
1r	1c	1A	1e
=109	=109	=109	=109
1D	1A	1d	1f
1GG	[1G	1B	1d
=110	=110	=110	=110
2C/	2G/]	2c\	2e/
2D\	2F/	2.A/	1d
1E	1E	.	.
.	.	4G/	.
.	.	[2G/	2c/
=111	=111	=111	=111
1D	2r	2G/]	1d
.	2A/	2F#i/	.
1GG	1B	1G	2r
.	.	.	2d/
=112	=112	=112	=112
1r	1c	0r	1e
1D	1d	.	1f
=113	=113	=113	=113
1E	0r	1G	1g
1F	.	1A	1r
=114	=114	=114	=114
1G	1d	1B	2r
.	.	.	1g
2.C/	1e	1c	.
.	.	.	2g/
4C/	.	.	.
=115	=115	=115	=115
2G\	2d\	2.B\	2g/
2G\	2d\	.	2g/
.	.	4B\	.
1C	1c	2G/	1g
.	.	2G/	.
=116	=116	=116	=116
1D	1A	1d	1f
1E	2r	1B	[1e
.	2G/	.	.
=117	=117	=117	=117
2AA/	1A	2c\	2e/]
2D\	.	2d\	2f/
2C/	2.c\	1e	2g/
2AA/	.	.	2a/
.	4B\	.	.
=118	=118	=118	=118
2D\	2A/	2d\	2f/
2E\	2G/	2c\	1g
1D	1A	1d	.
.	.	.	2f#i/
=119	=119	=119	=119
2r	1G	0B	0g
2GG/	.	.	.
2GG/	2r	.	.
2GG/	2D/	.	.
=120	=120	=120	=120
0D	2D/	1A	2r
.	2D/	.	2d/
.	[1A	2r	2.f/
.	.	2d\	.
.	.	.	4g/
=121	=121	=121	=121
2r	1A]	2.f\	1a
2D\	.	.	.
.	.	4g\	.
2.F\	2r	1a	1r
.	2A/	.	.
4G\	.	.	.
=122	=122	=122	=122
1A	2.c\	1r	2r
.	.	.	2cc\
.	4d\	.	.
1r	1e	2r	2b\
.	.	2g\	2b\
=123	=123	=123	=123
0r	1r	2f\	2a/
.	.	2f\	2a/
.	1c	2e\	1g
.	.	2e\	.
=124	=124	=124	=124
1G	2B\	1d	0r
.	2B\	.	.
2F\	2A/	2r	.
2F\	2A/	[2d\	.
=125	=125	=125	=125
2E\	1G	2d\]	2r
2E\	.	2c\	2e/
1D	1A	1d	1f
=126	=126	=126	=126
0r	2G/	2B\	2g/
.	2F/	2.c\	1a
.	1E	.	.
.	.	4B\	.
.	.	4A/	[2g/
.	.	4G/	.
=127	=127	=127	=127
1r	1D	1A	2g/]
.	.	.	2f#i/
2r	1r	1G	1g
2G\	.	.	.
=128	=128	=128	=128
2G\	0r	2r	0r
2G\	.	2g\	.
1E	.	2g\	.
.	.	2g\	.
=129	=129	=129	=129
1C	0r	1e	0r
2r	.	1c	.
2F\	.	.	.
=130	=130	=130	=130
2E\	0r	2r	0r
2D\	.	2f\	.
4A\	.	2e\	.
4G\	.	.	.
4F\	.	[2d\	.
4G\	.	.	.
=131	=131	=131	=131
1E	1r	2d\]	0r
.	.	2c#i\	.
[1D	2r	1d	.
.	2d\	.	.
=132	=132	=132	=132
1D]	2d\	0r	2r
.	2d\	.	2dd\
1r	1B	.	2dd\
.	.	.	2dd\
=133	=133	=133	=133
0r	1G	0r	1b
.	2r	.	1g
.	2c\	.	.
=134	=134	=134	=134
0r	2B\	0r	2r
.	2A/	.	2cc\
.	4e\	.	2b\
.	4d\	.	.
.	4c\	.	[2a/
.	4d\	.	.
=135	=135	=135	=135
0r	1B	1d	2a/]
.	.	.	2g#i/
.	[1A	1e	1a
=136	=136	=136	=136
1D	1A]	1f	0r
1E	1r	1g	.
=137	=137	=137	=137
1F	0r	1r	1a
1G	.	1g	1b
=138	=138	=138	=138
0r	1A	1e	1cc
.	1B	1d	1dd
=139	=139	=139	=139
1E	1c	1g	0r
1D	1d	1f	.
=140	=140	=140	=140
2C/	2r	2e\	0r
2D\	2A/	1d	.
1E	2.G/	.	.
.	.	2c#i\	.
.	4A/	.	.
=141	=141	=141	=141
1D	2B\	1d	2r
.	1A	.	2dd\
1r	.	[1e	2cc\
.	2G/	.	2b\
=142	=142	=142	=142
1r	[0A	1e]	2.a/
.	.	.	4g/
1D	.	1d	1f
=143	=143	=143	=143
2C/	0A]	2r	2e/
2D\	.	2d\	1d
1AA	.	1e	.
.	.	.	2c#i/
=144	=144	=144	=144
1D	2r	1f	1d
.	2A/	.	.
1GG	1B	1d	2r
.	.	.	2g/
=145	=145	=145	=145
0r	1c	1.e	2g/
.	.	.	2g/
.	1A	.	2a/
.	.	4d\	[2cc\
.	.	4c\	.
=146	=146	=146	=146
2r	1.G	1d	2cc\]
2GG/	.	.	2b\
2C/	.	2e\	2cc\
2D\	2F/	[2d\	2a/
=147	=147	=147	=147
1GG	2D/	4d\]	1b
.	.	4G/	.
.	2G/	2d\	.
1C	[1G	1e	2r
.	.	.	2cc\
=148	=148	=148	=148
0r	1G]	1d	2dd\
.	.	.	2b\
.	1r	2r	2a/
.	.	2f\	2cc\
=149	=149	=149	=149
0r	0r	2g\	2b\
.	.	2e\	2g/
.	.	2d\	1a
.	.	2f\	.
=150	=150	=150	=150
0r	1r	2e\	2g/
.	.	2c\	1cc
.	2r	1d	.
.	2G/	.	2b\
=151	=151	=151	=151
1r	2A/	0c	2cc\
.	2F/	.	2a/
2r	2E/	.	2g/
2C/	2G/	.	2e/
=152	=152	=152	=152
2D\	2F/	2r	2d/
2BB/	2D/	2G/	2dd\
2AA/	1E	2A/	1cc
2C/	.	2G/	.
=153	=153	=153	=153
2BB/	2D/	1B	1r
2GG/	1G	.	.
1AA	.	1r	2r
.	2F#i/	.	2cc\
=154	=154	=154	=154
1GG	0G	1d	1b
1C	.	2.c\	2.ee\
.	.	4d\	4dd\
=155	=155	=155	=155
0r	2r	4e\	2cc\
.	.	4f\	.
.	2G/	2g\	2b\
.	2A/	2e\	2cc\
.	[2D/	[2f\	[2a/
=156	=156	=156	=156
0r	4D/]	4f\]	4a/]
.	4E/	4e\	4g/
.	4F/	2d\	2f/
.	4G/	.	.
.	2A/	2c\	2e/
.	2D/	2d\	2f/
=157	=157	=157	=157
2r	1G	2B\	2d/
2.C/	.	2.e\	2.g/
.	1r	.	.
4D\	.	4d\	4f/
4E\	.	2c\	2e/
4F\	.	.	.
=158	=158	=158	=158
2G\	0r	2B\	2d/
2C/	.	2c\	2e/
2F\	.	2.A/	2c/
2D\	.	.	2f/
.	.	4B\	.
=159	=159	=159	=159
1.C	2.G/	2.c\	2e/
.	.	.	2g/
.	4F/	4B\	.
.	2E/	4A/	2a/
.	.	4G/	.
2BB/	[2D/	[2G/	2b\
=160	=160	=160	=160
1AA	2D/]	2G/]	1cc
.	2C/	2F#i/	.
1GG	2D/	2G/	2b\
.	[2G/	[2B\	[2dd\
=161	=161	=161	=161
0r	4G/]	4B\]	4dd\]
.	4A/	4c\	4cc\
.	4B\	4d\	2b\
.	4c\	4e\	.
.	2d\	2f\	2a/
.	2G/	2g\	2b\
=162	=162	=162	=162
2r	2c\	2e\	2g/
2.D\	2A/	2.f\	2.a/
.	1r	.	.
4E\	.	4e\	4g/
4F\	.	2d\	2f/
4G\	.	.	.
=163	=163	=163	=163
2A\	0r	2c\	2e/
2D\	.	2d\	2f/
2G\	.	2B\	2d/
[2C/	.	[2e\	[2g/
=164	=164	=164	=164
4C/]	0r	4e\]	4g/]
4D\	.	4d\	4f/
4E\	.	2c\	2e/
4F\	.	.	.
2G\	.	2B\	2d/
2C/	.	2c\	2e/
=165	=165	=165	=165
1F	1r	1.A	1c
1D	1F	.	1f
.	.	2B\	.
=166	=166	=166	=166
1.C	2.G/	2.c\	1e
.	4F/	4B\	.
.	2E/	4A/	2r
.	.	4G/	.
2BB/	2D/	2G/	2g/
=167	=167	=167	=167
2AA/	2C/	2F/	2a/
2GG/	1D	1G	2b\
1AA	.	.	1cc
.	2C/	2F#i/	.
=168	=168	=168	=168
0GGl	0Dl	0Gl	0bl
==	==	==	==
*-	*-	*-	*-
!!!RDF**kern: l=long note in original notation
!!!RDF**kern: i=editorial accidental
!!!ENC:	Jesse Rodin 8/24/2013
!!!END:	2013/08/24/
!!!EED:	Jesse Rodin
!!!EEV:	2014/01/08/
!!attribution-level@Jos: 5 (doubtful)
!!!ONB:	Translated from MusicXML and edited on 2014/01/08/ by Craig Sapp
!!muse2ps: C^@{COA}?\n@{SCT}^i2I150v85,85,85,150Q16
